%
(Header)
(Generated by gcodetools from Inkscape.)
(Using default header. To add your own header create file "header" in the output dir.)
M3
(Header end.)
G21 (All units in mm)

(Start cutting path id: path23572)
(Change tool to Cone cutter)

G00 Z5.000000
G00 X35.178127 Y20.084076

G01 Z-1.000000 F100.0(Penetrate)
G02 X34.145260 Y15.953910 Z-1.000000 I-8.774160 J-0.000000 F400.000000
G02 X30.955843 Y12.170124 Z-1.000000 I-10.459519 J5.580406
G02 X26.429057 Y9.780807 Z-1.000000 I-9.039390 J11.643106
G02 X20.762348 Y8.892058 Z-1.000000 I-5.666709 J17.621235
G02 X10.025283 Y12.570772 Z-1.000000 I0.000000 J17.508495
G02 X6.346569 Y20.084076 Z-1.000000 I5.833124 J7.513304
G02 X10.025284 Y27.597379 Z-1.000000 I9.511839 J-0.000001
G02 X20.762348 Y31.276093 Z-1.000000 I10.737065 J-13.829781
G02 X31.499413 Y27.597379 Z-1.000000 I-0.000000 J-17.508495
G02 X35.178127 Y20.084076 Z-1.000000 I-5.833124 J-7.513304
G01 X35.178127 Y20.084076 Z-1.000000
G00 Z5.000000

(End cutting path id: path23572)


(Start cutting path id: path23548)
(Change tool to Cone cutter)

G00 Z5.000000
G00 X26.828283 Y20.109617

G01 Z-1.000000 F100.0(Penetrate)
G02 X24.876402 Y15.273430 Z-1.000000 I-6.967266 J-0.000000 F400.000000
G02 X20.282751 Y13.321549 Z-1.000000 I-4.593652 J4.429522
G02 X15.689100 Y15.273430 Z-1.000000 I0.000000 J6.381402
G02 X13.737219 Y20.109617 Z-1.000000 I5.015385 J4.836187
G02 X15.689100 Y24.945804 Z-1.000000 I6.967266 J0.000000
G02 X20.282751 Y26.897685 Z-1.000000 I4.593652 J-4.429522
G02 X24.876402 Y24.945804 Z-1.000000 I-0.000000 J-6.381402
G02 X26.828283 Y20.109617 Z-1.000000 I-5.015385 J-4.836187
G01 X26.828283 Y20.109617 Z-1.000000
G00 Z5.000000

(End cutting path id: path23548)


(Footer)
M5
G00 X0.0000 Y0.0000
M2
(Using default footer. To add your own footer create file "footer" in the output dir.)
(end)
%