%
(Header)
(Generated by gcodetools from Inkscape.)
(Using default header. To add your own header create file "header" in the output dir.)
M3
(Header end.)
G21 (All units in mm)

(Start cutting path id: path31)
(Change tool to Cone cutter)

G00 Z5.000000
G00 X31.394691 Y20.253109

G01 Z-0.125000 F200.0(Penetrate)
G02 X30.584465 Y15.892073 Z-0.125000 I-12.141730 J0.000000 F200.000000
G02 X28.320380 Y12.264968 Z-0.125000 I-10.529159 J4.052246
G02 X24.877002 Y9.802865 Z-0.125000 I-7.751970 J7.202610
G02 X20.898335 Y8.956171 Z-0.125000 I-3.978667 J8.924648
G02 X16.919667 Y9.802865 Z-0.125000 I-0.000001 J9.771343
G02 X13.476290 Y12.264967 Z-0.125000 I4.308592 J9.664712
G02 X11.212205 Y15.892073 Z-0.125000 I8.265073 J7.679352
G02 X10.401978 Y20.253109 Z-0.125000 I11.331504 J4.361036
G02 X11.212205 Y24.614145 Z-0.125000 I12.141730 J-0.000000
G02 X13.476290 Y28.241251 Z-0.125000 I10.529159 J-4.052246
G02 X16.919667 Y30.703353 Z-0.125000 I7.751969 J-7.202610
G02 X20.898335 Y31.550047 Z-0.125000 I3.978666 J-8.924648
G02 X24.877002 Y30.703352 Z-0.125000 I-0.000000 J-9.771343
G02 X28.320380 Y28.241250 Z-0.125000 I-4.308592 J-9.664712
G02 X30.584465 Y24.614145 Z-0.125000 I-8.265074 J-7.679351
G02 X31.394691 Y20.253109 Z-0.125000 I-11.331504 J-4.361036
G01 X31.394691 Y20.253109 Z-0.125000
G00 Z5.000000

(End cutting path id: path31)


(Footer)
M5
G00 X0.0000 Y0.0000
M2
(Using default footer. To add your own footer create file "footer" in the output dir.)
(end)
%