%
(Header)
(Generated by gcodetools from Inkscape.)
(Using default header. To add your own header create file "header" in the output dir.)
M3
(Header end.)
G21 (All units in mm)

(Start cutting path id: path33798)
(Change tool to Cone cutter)

G00 Z5.000000
G00 X29.886548 Y21.596848

G01 Z-0.125000 F200.0(Penetrate)
G02 X29.323852 Y19.214552 Z-0.125000 I-5.324330 J-0.000001 F200.000000
G02 X27.625833 Y17.078223 Z-0.125000 I-5.918052 J2.960862
G02 X25.184000 Y15.709321 Z-0.125000 I-4.969856 J6.002871
G02 X22.167984 Y15.206547 Z-0.125000 I-3.016016 J8.794771
G02 X19.151968 Y15.709321 Z-0.125000 I-0.000000 J9.297545
G02 X16.710135 Y17.078223 Z-0.125000 I2.528023 J7.371772
G02 X15.012116 Y19.214552 Z-0.125000 I4.220032 J5.097192
G02 X14.449420 Y21.596848 Z-0.125000 I4.761635 J2.382295
G02 X15.012116 Y23.979143 Z-0.125000 I5.324330 J-0.000000
G02 X16.710135 Y26.115473 Z-0.125000 I5.918052 J-2.960863
G02 X19.151968 Y27.484374 Z-0.125000 I4.969856 J-6.002871
G02 X22.167984 Y27.987148 Z-0.125000 I3.016015 J-8.794771
G02 X25.184000 Y27.484374 Z-0.125000 I0.000000 J-9.297545
G02 X27.625833 Y26.115473 Z-0.125000 I-2.528023 J-7.371773
G02 X29.323852 Y23.979143 Z-0.125000 I-4.220032 J-5.097193
G02 X29.886548 Y21.596848 Z-0.125000 I-4.761634 J-2.382296
G01 X29.886548 Y21.596848 Z-0.125000
G00 Z5.000000

(End cutting path id: path33798)


(Start cutting path id: rect33772)
(Change tool to Cone cutter)

G00 Z5.000000
G00 X8.264627 Y32.771450

G01 Z-0.125000 F200.0(Penetrate)
G01 X35.385580 Y32.771450 Z-0.125000 F200.000000
G01 X35.385580 Y9.926115 Z-0.125000
G01 X8.264627 Y9.926115 Z-0.125000
G01 X8.264627 Y32.771450 Z-0.125000
G00 Z5.000000

(End cutting path id: rect33772)


(Footer)
M5
G00 X0.0000 Y0.0000
M2
(Using default footer. To add your own footer create file "footer" in the output dir.)
(end)
%